X: 4132
M: C|
L: 1/8
K: Em
|:\
(3BBB (eB) fBeB | B^cdB ADFA |\
(3BBB (eB) fBeB | d^cdB ADFA ::\
E2{EE}B2 BAFD | E2B2ADFD |\
E2B2 BAFA | B^cdB ADFA |]


